Vector/symbolic/apps/user-info-symbolic.svg

<svg xmlns="http://www.w3.org/2000/svg" width="16" height="16" version="1.1">
 <path style="fill:#444444" d="M 8.87,8 C 8.38,8 8,8.38 8,8.87 V 15.12 C 8,15.62 8.38,16 8.87,16 H 15.12 C 15.62,16 16,15.62 16,15.12 V 8.87 C 16,8.38 15.62,8 15.12,8 Z M 11,9 H 13 V 10 H 11 Z M 11,11 H 13 V 15 H 11 Z"/>
 <path style="fill:#444444" d="M 8,2 C 6.34,2 5,3.34 5,5 5,6.41 5.9791,7.5902 7.2891,7.9102 7.6191,7.3702 8.2191,7 8.8691,7 H 10.221 C 10.701,6.47 11,5.77 11,5 11,3.34 9.66,2 8,2 Z M 7,10.039 C 2,10 2,14 2,14 V 15 H 7 Z"/>
</svg>

<svg xmlns="http://www.w3.org/2000/svg" width="16" height="16"><path d="M8.87 8c-.49 0-.87.38-.87.87v6.25c0 .5.38.88.87.88h6.25c.5 0 .88-.38.88-.88V8.87a.86.86 0 0 0-.88-.87zM11 9h2v1h-2zm0 2h2v4h-2zM8 2C6.34 2 5 3.34 5 5c0 1.41.98 2.59 2.29 2.91.33-.54.93-.91 1.58-.91h1.351c.48-.53.779-1.23.779-2 0-1.66-1.34-3-3-3zm-1 8.039C2 10 2 14 2 14v1h5z" fill="#555555"/></svg>
